svg/playground-11.svg

<?xml version="1.0" encoding="utf-8"?>
<!-- Generator: Adobe Illustrator 19.2.1, SVG Export Plug-In . SVG Version: 6.00 Build 0)  -->
<!DOCTYPE svg PUBLIC "-//W3C//DTD SVG 1.1//EN" "http://www.w3.org/Graphics/SVG/1.1/DTD/svg11.dtd">
<svg version="1.1" id="Layer_1" xmlns="http://www.w3.org/2000/svg" xmlns:xlink="http://www.w3.org/1999/xlink" x="0px" y="0px"
	 width="11px" height="11px" viewBox="0 0 11 11" style="enable-background:new 0 0 11 11;" xml:space="preserve">
<path d="M1,0.79c0.1286-0.5371,0.6683-0.8683,1.2054-0.7397S3.0736,0.7186,2.945,1.2557C2.8183,1.7849,2.2917,2.1156,1.76,2
	C1.2203,1.8826,0.878,1.35,0.9954,0.8103C0.9968,0.8035,0.9984,0.7968,1,0.79z M10.85,8.16L10.85,8.16l-2-2l0,0
	C8.76,6.0612,8.6336,6.0034,8.5,6H8.37l0,0L6.5,6.55V4l0,0C6.746,4.0083,6.96,3.8328,7,3.59C7.0558,3.3225,6.8866,3.0598,6.62,3H6.5
	V0H6.28v3L1.82,3.55l0,0C1.4201,3.6111,1.0965,3.9072,1,4.3C0.9688,4.4416,0.9688,4.5884,1,4.73l0,0l0.81,3.13l0,0
	c0.1012,0.3354,0.3706,0.5933,0.71,0.68c0.1513,0.0357,0.3087,0.0357,0.46,0H3l3.29-0.89v1.62l-3,0.74l0,0
	c-0.2761,0.0856-0.4306,0.3789-0.345,0.655c0.0856,0.2761,0.3789,0.4306,0.655,0.345c0.0566,0.0051,0.1134,0.0051,0.17,0l4-1
	c0.2761-0.0828,0.4328-0.3739,0.35-0.65C8.0372,9.0839,7.7461,8.9272,7.47,9.01L7.27,9L6.5,9.22V7.58l1.83-0.51l1.81,1.78l0,0
	c0.1758,0.213,0.4909,0.2432,0.7039,0.0674c0.213-0.1758,0.2432-0.4909,0.0674-0.7039C10.8956,8.1945,10.8784,8.1766,10.86,8.16
	H10.85z M6.28,6.61L4.21,7.07L3.5,4.33L6.28,4V6.61z"/>
</svg>

<svg xmlns="http://www.w3.org/2000/svg" width="11" height="11">
    <path d="M1 .79a1 1 0 1 1-.005.02L1 .79zm9.85 7.37l-2-2A.49.49 0 0 0 8.5 6h-.13l-1.87.55V4a.49.49 0 0 0 .5-.41.5.5 0 0 0-.38-.59H6.5V0h-.22v3l-4.46.55A1 1 0 0 0 1 4.3a1 1 0 0 0 0 .43l.81 3.13a1 1 0 0 0 .71.68c.151.036.309.036.46 0H3l3.29-.89v1.62l-3 .74a.524.524 0 0 0 .31 1 .946.946 0 0 0 .17 0l4-1a.522.522 0 0 0-.3-1L7.27 9l-.77.22V7.58l1.83-.51 1.81 1.78a.5.5 0 1 0 .72-.69h-.01zM6.28 6.61l-2.07.46-.71-2.74L6.28 4v2.61z"/>
</svg>
